X:1
T:Resignation
T:D Major         Joseph Funk, 1832
T:Isaac Watts, 1719 (Psalm 23)            86. 86. D. (C.M.D.)
T:Transcribed from Compilation of Genuine Church Music, 1835; Alto by B. C. Johnston, 2019.
%%score [ 1 2 3 4 ]
L:1/8
Q:1/4=150
M:3/2
K:D
V:1 treble nm="Tr." snm="Tr."
V:2 treble nm="A." snm="A."
V:3 treble-8 nm="T." snm="T."
V:4 bass nm="B." snm="B."
V:1
"_My       shepherd  will  supply my  need,  Je – ho –vah  is   his  name;\n In      pastures  fresh  he makes me feed,  Be –side the  living  stream.""^1. {" A4 |: %1
 A8 (F2 A2) | d8 e4 | A8 (B2 A2) | B8 d4 | d8 A4 | B8 (A2 B2) |1"^}" d8 A4 :|2 %8
 d8"_He brings my wandering spirit back  When I   forsake  his  ways; And leads me," d4 || A8 d4 | %10
 f8 f4 | e8 d4 | e8 d4 | f8 d4 | A8 A4 | d8 d4 | A8 (F2 A2) | %17
"^for  his   mercy's      sake,  In     paths  of  truth  and   grace." d8 e4 | A8 (B2 A2) | %19
 B8 d4 | d8 A4 | B8 (A2 B2) | d12 |] %23
V:2
"^When I walk through the shades of death,  Thy presence is  my  stay;\n  A        word  of  thy  supporting  breath  Drives all   my  fears   away.""^2. {" F4 |: %1
 A8 (F2 A2) | F8 A4 | A8 (G2 F2) | D8 (D2 F2) | A8 A4 | F8 E4 |1"^}" D8 F4 :|2 %8
 D8"_Thy hand, in  sight  of  all  my  foes,  Doth still my  table spread,  My  cup  with" F4 || %9
 A8 (A2 d2) | d8 B4 | A8 D4 | E8 (D2 F2) | F8 D4 | D8 E4 | D8 F4 | A8 (D2 E2) | %17
"^blessings o  –  ver  – flows,  Thine  oil   anoints   my     head." F8 E4 | D8 (G2 F2) | %19
 D8 (D2 F2) | A8 A4 | F8 E4 | D12 |] %23
V:3
"_The      sure   provisions  of   my    God   Attend   me   all  my   days:\nO          may  thy  house be mine  abode,  And all my work be praise!""^3. {" (D2 F2) |: %1
 A8 (F2 E2) | F8 A4 | d8 (B2 A2) | F8 (D2 F2) | A8 D4 | F8 E4 |1"^}" D8 (D2 F2) :|2 %8
 D8"_There would I find  a  settled    rest,  While  others  go and come;  No  more  a" A4 || %9
 d8 (f2 d2) | B8 d4 | e8 (d2 B2) | A8 (F2 A2) | B8 (A2 B2) | d8 e4 | d8 (D2 F2) | A8 (F2 E2) | %17
"^stranger   or     a      guest,   But    like   a    child   at     home." F8 A4 | d8 (B2 A2) | %19
 F8 (D2 F2) | A8 D4 | F8 E4 | D12 |] %23
V:4
 D,4 |: A,,8 (D,2 E,2) | F,8 E,4 | D,8 (E,2 F,2) | D,8 A,4 | F,8 D,4 | B,,8 E,4 |1 D,8 D,4 :|2 %8
 D,8 F,4 || D,8 (A,2 F,2) | D,8 B,4 | A,8 (D,2 F,2) | E,8 (F,2 A,2) | B,8 (A,2 F,2) | D,8 A,,4 | %15
 D,8 D,4 | A,,8 (D,2 E,2) | %17
"__________________________________________________________________________________________________________________________________________________\nA folk hymn, first arranged by Joseph Funk (in key of E) in his \nCompilation of Genuine Church Music\n, 1832, to words by Charles Wesley, 1759, which begin \nAnd let this \n   feeble body fail\n; this book was renamed \nHarmonia Sacra\n in 1851, and has gone through many editions down to the present. A slightly different arrangement (in F) appears \n   in William Walker's Southern and Western Pocket Harmonist, 1846, with words as above. The tune (usually with Watts' words) is very commonly found in hymnals and tunebooks." F,8 E,4 | %18
 D,8 (E,2 F,2) | D,8 A,4 | F,8 D,4 | B,,8 E,4 | D,12 |] %23

